public/assets/images/icons/black/visibility-invisible/folder-edit-full2.svg

<svg width="16" height="16" xmlns="http://www.w3.org/2000/svg" viewBox="0 0 16 16" shape-rendering="geometricPrecision"><defs><mask id="a"><rect fill="#fff" width="100%" height="100%"/><path d="M12.997.858a4.809 4.809 0 0 0-4.253 2.563 4.81 4.81 0 0 0 8.506 0A4.812 4.812 0 0 0 12.997.858z"/></mask></defs><path d="M12.997 1.611a3.394 3.394 0 0 0-3.003 1.81 3.397 3.397 0 0 0 6.006 0 3.398 3.398 0 0 0-3.003-1.81zm-.001 3.396a1.587 1.587 0 1 1 0-3.174 1.587 1.587 0 0 1 0 3.174z" fill="#cb1800"/><g mask="url(#a)"><path d="M8.182 3.179l-.815-1.923h-3.78L2.77 3.179H1.649l.001.949 13.327-.009.018 9.283.933-.978V3.179z"/><path d="M.072 4.756V14h14.279V4.756H.072zm5.222 8.236l-.082-.852.736.293-.654.559zm1.271-1.08l-1.443-.579L6.681 7.44l1.444.579-1.56 3.893zm1.952-4.87l-.233.58-1.444-.58.232-.578a.778.778 0 0 1 1.445.578z"/></g></svg>

<?xml version="1.0"?><!DOCTYPE svg PUBLIC "-//W3C//DTD SVG 1.1//EN" "http://www.w3.org/Graphics/SVG/1.1/DTD/svg11.dtd"><svg width="16px" height="16px" xmlns="http://www.w3.org/2000/svg" viewBox="0 0 16 16" shape-rendering="geometricPrecision" fill="#000"><defs><mask id="visibility-invisible-path"><rect fill="#fff" width="100%" height="100%"/><path d="M12.997,0.858c-1.845,0-3.446,1.039-4.253,2.563c0.808,1.523,2.408,2.562,4.253,2.562 c1.844,0,3.444-1.039,4.253-2.562C16.441,1.897,14.841,0.858,12.997,0.858z" fill="#000"/></mask></defs><g id="visibility-invisible" display="inline" fill="#cb1800"><g><g><path d="M12.997,1.611c-1.303,0-2.433,0.733-3.003,1.81c0.57,1.075,1.7,1.809,3.003,1.809c1.302,0,2.432-0.733,3.003-1.809 C15.429,2.345,14.299,1.611,12.997,1.611z M12.996,5.007c-0.876,0-1.587-0.71-1.587-1.586c0-0.877,0.711-1.588,1.587-1.588 c0.877,0,1.588,0.711,1.588,1.588C14.584,4.297,13.873,5.007,12.996,5.007z"/></g></g></g><g mask="url(#visibility-invisible-path)"><g><polygon points="8.182,3.179 7.367,1.256 3.587,1.256 2.77,3.179 1.649,3.179 1.65,4.128 14.977,4.119 14.995,13.402 15.928,12.424 15.928,3.179"/><path d="M0.072,4.756V14h14.279V4.756H0.072z M5.294,12.992L5.212,12.14l0.736,0.293L5.294,12.992z M6.565,11.912l-1.443-0.579 L6.681,7.44l1.444,0.579L6.565,11.912z M8.517,7.042l-0.233,0.58L6.84,7.042l0.232-0.578c0.163-0.396,0.612-0.588,1.01-0.428 C8.479,6.193,8.673,6.644,8.517,7.042L8.517,7.042z"/></g></g></svg>
